X:59
T:Old Nelson Hornpipe. JBu.59
T:Nelson Hornpipe,aka. JBu.59
T:Flying Coach,aka. JBu.59, The
O:England,South Yorkshire
S:Joshua Burnett’s MS,c1835,S.Yorkshire
M:C|
L:1/8
Q:1/2=90
R:.hornpipe
Z:vmp.R.Greig.2011
K:A
cd|ecfd cBdB|AGBG A2ce|fdaf fedc|cBdB AGFE|
ecfd cBdB|AGBG Aafe|dceB AGBG|A2A2A2:|
|:cd|egaf fedc|fefg a2ag|fedc BAGF|E2E2E2 AG|
FABG Acec|dfaf edfd|cBdB AGBG|A2A2A2:|

